X:1
T:Title
%%score { ( 1 3 ) | ( 2 4 ) }
L:1/8
Q:1/4=100
M:4/4
K:C
V:1 treble nm="Grand Piano"
V:3 treble 
V:2 bass 
V:4 bass 
V:1
 [EG][Ge][Fd][Ec] [CE][CE][FA][FA] | [EG]2 C2 E4 |[M:7/8] D^CD EF AG |[M:1/8] c |[M:3/4] B6 | %5
w: T.~Martin~Towne * * * * * * *|||||
[M:4/4] [EG][Ge][Fd][Ec] [CE][CE][FA][FA] | [EG]2 C2 E4 |[M:7/8] D^CD EF AG |[M:1/8] B | %9
w: ||||
[M:4/4] [Ec]6 z2 | [GB]2 [GB]2 d4 | [Ec]2 [Ec]2[K:bass][K:treble] [Ge]4 | z4 .e2 .c2 | %13
w: ||||
[M:9/8] G2 [^FA]- [FA] z z z3 |[M:4/4] z4 [Ec]4 | d2 [FA]2 [Fd]4 | fedc BGed | c6 z2 |] %18
w: |||||
V:2
 [C,C][C,C][C,G,][C,G,] [C,G,][C,G,][C,C][C,C] | [C,C]2 [C,E,]2 [C,G,C]4 | %2
[M:7/8] [G,B,][G,_B,][G,=B,][K:treble] [G,C][G,B,D] [G,B,F][G,CE] |[M:1/8] [G,EG] | %4
[M:3/4] [G,DG]6 |[M:4/4][K:bass] [C,C][C,C][C,G,][C,G,] [C,G,][C,G,][C,C][C,C] | %6
 [C,C]2 [C,E,]2 [C,G,C]4 |[M:7/8] [G,B,][G,_B,][G,=B,][K:treble] [G,C][G,B,D] [G,B,F][G,CE] | %8
[M:1/8] [G,D] |[M:4/4][K:bass] [C,G,]6 z2 | z4[K:treble] G4[K:bass] | C,C, .[C,G,]2 [C,C]C, C,2 | %12
 z[K:treble] d z A[K:bass] [D,A,]2 A,C |[M:9/8] [G,B,]G,G, G,[K:treble] [DF-]2 [B,F]2- [B,-F]/B,/ | %14
[M:4/4][K:bass] [C,C][C,C][C,C][C,C] [C,G,]C, C,2 | .[F,A,]2 z2 z4 | %16
 [G,B,F]2 [G,B,F]2 [G,B,F]2 GF | [C,C][C,C][C,B,][C,A,] [C,G,]2 z2 |] %18
V:3
 x8 | x8 |[M:7/8] x7 |[M:1/8] x |[M:3/4] x6 |[M:4/4] x8 | x8 |[M:7/8] x7 |[M:1/8] x |[M:4/4] x8 | %10
 z DDD z B, B,2 | CG, z[K:bass] [C,G,][K:treble] z C C2 | .[^Fe]2 .[CFc]2 F-[Fd]F-[FA] | %13
[M:9/8] z B,C C B2 d3 |[M:4/4] [Ec]2 [EG]2 z G, G,2 | z A,A,A, z A, A,2 | x8 | EEGF E2 z2 |] %18
V:4
 x8 | x8 |[M:7/8] x3[K:treble] x4 |[M:1/8] x |[M:3/4] x6 |[M:4/4][K:bass] x8 | x8 | %7
[M:7/8] x3[K:treble] x4 |[M:1/8] x |[M:4/4][K:bass] x8 | %10
 [G,D]G,G,G,[K:treble] [G,B,]G,[K:bass] G,2 | x8 | [D,C]2[K:treble] D,2[K:bass] z2 D,2 | %13
[M:9/8] z3 z[K:treble] G,2- G,3 |[M:4/4][K:bass] x8 | F-[F,F]F,F, [D,A,]D, D,2 | z4 z2 [G,B,]2 | %17
 x8 |] %18

